icons/eye-off.svg

<svg width="24" height="24" viewBox="0 0 24 24" fill="none" xmlns="http://www.w3.org/2000/svg">
<g clip-path="url(#clip0)">
<path fill-rule="evenodd" clip-rule="evenodd" d="M0.292893 0.292893C0.683417 -0.0976311 1.31658 -0.0976311 1.70711 0.292893L23.7071 22.2929C24.0976 22.6834 24.0976 23.3166 23.7071 23.7071C23.3166 24.0976 22.6834 24.0976 22.2929 23.7071L17.8823 19.2966C16.1808 20.3752 14.1623 21 12 21C6.67711 21 2.23928 17.2203 1.22 12.1989C1.19335 12.0676 1.19335 11.9324 1.22 11.8011C1.68644 9.50323 2.86795 7.46736 4.5202 5.93442L0.292893 1.70711C-0.0976311 1.31658 -0.0976311 0.683417 0.292893 0.292893ZM5.93561 7.34982C4.6012 8.56741 3.63561 10.1798 3.22277 12C4.1318 16.0081 7.71757 19 12 19C13.6094 19 15.1186 18.5783 16.4249 17.8391L14.0318 15.446C13.4364 15.7977 12.7414 16 12 16C9.79084 16 7.99998 14.2091 7.99998 12C7.99998 11.2586 8.20227 10.5636 8.55395 9.96817L5.93561 7.34982ZM10.0676 11.4818C10.0234 11.647 9.99998 11.8206 9.99998 12C9.99998 13.1046 10.8954 14 12 14C12.1793 14 12.353 13.9765 12.5182 13.9324L10.0676 11.4818ZM12 5C11.174 5 10.3754 5.11102 9.61783 5.31837C9.08513 5.46417 8.53511 5.15052 8.38932 4.61783C8.24352 4.08513 8.55717 3.53511 9.08986 3.38932C10.0179 3.13532 10.9939 3 12 3C17.3228 3 21.7607 6.77972 22.78 11.8011C22.8066 11.9324 22.8066 12.0676 22.78 12.1989C22.504 13.5583 21.9776 14.8265 21.2515 15.9528C20.9522 16.417 20.3334 16.5507 19.8692 16.2515C19.405 15.9522 19.2713 15.3334 19.5705 14.8692C20.129 14.0029 20.5424 13.0352 20.7772 12C19.8682 7.99191 16.2824 5 12 5Z" fill="black"/>
</g>
<defs>
<clipPath id="clip0">
<rect width="24" height="24" fill="white"/>
</clipPath>
</defs>
</svg>

<svg
  width="24"
  height="24"
  viewBox="0 0 24 24"
  xmlns="http://www.w3.org/2000/svg"
>
  <g clip-path="url(#a)">
    <path
      fill-rule="evenodd"
      clip-rule="evenodd"
      d="M.293.293a1 1 0 0 1 1.414 0l22 22a1 1 0 0 1-1.414 1.414l-4.41-4.41A10.953 10.953 0 0 1 12 21c-5.323 0-9.76-3.78-10.78-8.801a1 1 0 0 1 0-.398 10.986 10.986 0 0 1 3.3-5.867L.293 1.707a1 1 0 0 1 0-1.414zM5.936 7.35A8.991 8.991 0 0 0 3.223 12a9.004 9.004 0 0 0 13.202 5.84l-2.393-2.394a4 4 0 0 1-5.478-5.478L5.936 7.35zm4.132 4.132a2.002 2.002 0 0 0 2.45 2.45l-2.45-2.45zM12 5c-.826 0-1.625.111-2.382.318A1 1 0 1 1 9.09 3.39 11.01 11.01 0 0 1 12 3c5.323 0 9.76 3.78 10.78 8.801.027.131.027.267 0 .398a10.942 10.942 0 0 1-1.529 3.754 1 1 0 0 1-1.68-1.084A8.943 8.943 0 0 0 20.776 12 9.004 9.004 0 0 0 12 5z"
    />
  </g>
  <defs>
    <clipPath id="a">
      <rect width="24" height="24" />
    </clipPath>
  </defs>
</svg>
